X: 10973
T: Drunken Acrobat, The
R: reel
M: 4/4
K: Emajor
|:B,EFG BGFE|B,CCB, C2 FE|B,EFG BGFE|BccB cB G2|
B,EFG BGFE|B,CCB, C2 EC|B,CEC EFcc|BGFG E3z:|
|:e3 f c2 BG|FFGF FECE|B,CCB, CEEC|FGFE FGBc|
e2 ef c2 BG|FFGF FECE|B,CEC EFcc|BGFG E3z:|

